svg/fluentui-system-icons/ic_fluent_shield_checkmark_24_filled.svg

<svg width="24" height="24" viewBox="0 0 24 24" fill="none" xmlns="http://www.w3.org/2000/svg">
<path d="M3 5.75C3 5.33579 3.33579 5 3.75 5C6.41341 5 9.00797 4.05652 11.55 2.15C11.8167 1.95 12.1833 1.95 12.45 2.15C14.992 4.05652 17.5866 5 20.25 5C20.6642 5 21 5.33579 21 5.75V11C21 11.3381 20.9865 11.6701 20.9595 11.9961C19.9577 11.3651 18.7715 11 17.5 11C13.9101 11 11 13.9101 11 17.5C11 19.151 11.6156 20.6583 12.6297 21.8048C12.5126 21.8531 12.3944 21.9007 12.2749 21.9478C12.0982 22.0174 11.9018 22.0174 11.7251 21.9478C5.95756 19.6757 3 16.0012 3 11V5.75ZM23 17.5C23 14.4624 20.5376 12 17.5 12C14.4624 12 12 14.4624 12 17.5C12 20.5376 14.4624 23 17.5 23C20.5376 23 23 20.5376 23 17.5ZM20.8536 15.1464C21.0488 15.3417 21.0488 15.6583 20.8536 15.8536L16.8536 19.8536C16.6583 20.0488 16.3417 20.0488 16.1464 19.8536L14.1464 17.8536C13.9512 17.6583 13.9512 17.3417 14.1464 17.1464C14.3417 16.9512 14.6583 16.9512 14.8536 17.1464L16.5 18.7929L20.1464 15.1464C20.3417 14.9512 20.6583 14.9512 20.8536 15.1464Z" fill="#212121"/>
</svg>

<svg xmlns="http://www.w3.org/2000/svg" width="24" height="24"><path d="M3 5.75A.75.75 0 0 1 3.75 5c2.663 0 5.258-.943 7.8-2.85a.75.75 0 0 1 .9 0C14.992 4.057 17.587 5 20.25 5a.75.75 0 0 1 .75.75V11c0 .338-.014.67-.04.996a6.5 6.5 0 0 0-8.33 9.809l-.355.143a.75.75 0 0 1-.55 0C5.958 19.676 3 16 3 11V5.75ZM23 17.5a5.5 5.5 0 1 0-11 0 5.5 5.5 0 0 0 11 0Zm-2.146-2.354a.5.5 0 0 1 0 .708l-4 4a.5.5 0 0 1-.708 0l-2-2a.5.5 0 0 1 .708-.708l1.646 1.647 3.646-3.647a.5.5 0 0 1 .708 0Z"/></svg>
